images/OXT.svg

<svg height="250" viewBox="0 0 250 250" width="250" xmlns="http://www.w3.org/2000/svg"><path d="m250 125c0 69.035156-55.964844 125-125 125s-125-55.964844-125-125 55.964844-125 125-125 125 55.964844 125 125zm0 0" fill="#5f45ba"/><g fill="#fff"><path d="m82.867188 70.058594c0 4.5-3.644532 8.148437-8.144532 8.148437s-8.148437-3.648437-8.148437-8.148437 3.648437-8.148438 8.148437-8.148438 8.144532 3.648438 8.144532 8.148438zm0 0"/><path d="m54.726562 67.644531c0 3.167969-2.566406 5.738281-5.734374 5.738281-3.167969 0-5.734376-2.570312-5.734376-5.738281s2.566407-5.734375 5.734376-5.734375c3.167968 0 5.734374 2.566406 5.734374 5.734375zm0 0"/><path d="m131.378906 188.570312c32.59375-3.867187 56.855469-31.949218 55.949219-64.757812-.902344-32.808594-26.679687-59.515625-59.433594-61.582031-4.097656-.261719-8.207031-.117188-12.273437.429687-5.335938.503906-10.558594 1.824219-15.492188 3.914063-5.734375 2.785156-9.433594 7.503906-9.433594 13.773437.015626 8.164063 6.628907 14.777344 14.792969 14.796875 1.394531 0 6.109375-1.5 7.238281-1.875 4.296876-1.507812 8.855469-2.128906 13.398438-1.824219 16.054688 1.003907 29.242188 13.054688 31.683594 28.953126 2.441406 15.898437-6.519532 31.351562-21.53125 37.125-15.015625 5.777343-32.023438.316406-40.867188-13.121094-6.804687-8.949219-5.25-23.207032-5.25-23.421875-.25-7.328125-5.820312-13.371094-13.101562-14.214844s-14.085938 3.761719-16.003906 10.835937c-.304688 1.773438-.445313 3.566407-.429688 5.363282-1.414062 34.457031 24.972656 63.722656 59.390625 65.875 3.785156.285156 7.59375.195312 11.363281-.269532m-36.019531-42.933593"/><path d="m74.722656 91.445312c0 5.832032-4.730468 10.558594-10.5625 10.558594-5.832031 0-10.558594-4.726562-10.558594-10.558594 0-5.832031 4.726563-10.558593 10.558594-10.558593 5.832032 0 10.5625 4.726562 10.5625 10.558593zm0 0"/></g></svg>

<svg xmlns="http://www.w3.org/2000/svg" xmlns:xlink="http://www.w3.org/1999/xlink" width="250px" height="250px" viewBox="0 0 250 250" version="1.1">
<g id="surface1">
<path style=" stroke:none;fill-rule:nonzero;fill:rgb(37.254903%,27.058825%,72.941178%);fill-opacity:1;" d="M 250 125 C 250 194.035156 194.035156 250 125 250 C 55.964844 250 0 194.035156 0 125 C 0 55.964844 55.964844 0 125 0 C 194.035156 0 250 55.964844 250 125 Z M 250 125 "/>
<path style=" stroke:none;fill-rule:nonzero;fill:rgb(100%,100%,100%);fill-opacity:1;" d="M 82.867188 70.058594 C 82.867188 74.558594 79.222656 78.207031 74.722656 78.207031 C 70.222656 78.207031 66.574219 74.558594 66.574219 70.058594 C 66.574219 65.558594 70.222656 61.910156 74.722656 61.910156 C 79.222656 61.910156 82.867188 65.558594 82.867188 70.058594 Z M 82.867188 70.058594 "/>
<path style=" stroke:none;fill-rule:nonzero;fill:rgb(100%,100%,100%);fill-opacity:1;" d="M 54.726562 67.644531 C 54.726562 70.8125 52.160156 73.382812 48.992188 73.382812 C 45.824219 73.382812 43.257812 70.8125 43.257812 67.644531 C 43.257812 64.476562 45.824219 61.910156 48.992188 61.910156 C 52.160156 61.910156 54.726562 64.476562 54.726562 67.644531 Z M 54.726562 67.644531 "/>
<path style=" stroke:none;fill-rule:nonzero;fill:rgb(100%,100%,100%);fill-opacity:1;" d="M 131.378906 188.570312 C 163.972656 184.703125 188.234375 156.621094 187.328125 123.8125 C 186.425781 91.003906 160.648438 64.296875 127.894531 62.230469 C 123.796875 61.96875 119.6875 62.113281 115.621094 62.660156 C 110.285156 63.164062 105.0625 64.484375 100.128906 66.574219 C 94.394531 69.359375 90.695312 74.078125 90.695312 80.347656 C 90.710938 88.511719 97.324219 95.125 105.488281 95.144531 C 106.882812 95.144531 111.597656 93.644531 112.726562 93.269531 C 117.023438 91.761719 121.582031 91.140625 126.125 91.445312 C 142.179688 92.449219 155.367188 104.5 157.808594 120.398438 C 160.25 136.296875 151.289062 151.75 136.277344 157.523438 C 121.261719 163.300781 104.253906 157.839844 95.410156 144.402344 C 88.605469 135.453125 90.160156 121.195312 90.160156 120.980469 C 89.910156 113.652344 84.339844 107.609375 77.058594 106.765625 C 69.777344 105.921875 62.972656 110.527344 61.054688 117.601562 C 60.75 119.375 60.609375 121.167969 60.625 122.964844 C 59.210938 157.421875 85.597656 186.6875 120.015625 188.839844 C 123.800781 189.125 127.609375 189.035156 131.378906 188.570312 M 95.359375 145.636719 Z M 95.359375 145.636719 "/>
<path style=" stroke:none;fill-rule:nonzero;fill:rgb(100%,100%,100%);fill-opacity:1;" d="M 74.722656 91.445312 C 74.722656 97.277344 69.992188 102.003906 64.160156 102.003906 C 58.328125 102.003906 53.601562 97.277344 53.601562 91.445312 C 53.601562 85.613281 58.328125 80.886719 64.160156 80.886719 C 69.992188 80.886719 74.722656 85.613281 74.722656 91.445312 Z M 74.722656 91.445312 "/>
</g>
</svg>
